X: 31930
T: Peadar O'Haoine's
R: jig
M: 6/8
K: Dmixolydian
D|:EAA ABc|BAB GED|EFG EFG|BAB GED|
EAA ABc|BAB GAB|cAG A2G|1 FDD DEF:|2 FDD D2||
|:g|fdd ede|fd^c def|ged e2d|^cAA A2d|
eaa efg|fef dBA|BAG A2G|FDD D2:|

